X:1
T:Title
%%score { 1 | ( 2 3 ) }
L:1/8
M:6/8
K:F
V:1 treble nm="Grand Piano"
V:2 bass 
V:3 bass 
V:1
 z3 z2[Q:1/4=100] C | F2 G A>BA | GFE F2 A | c2 A A>G[A,F] | [CFA]2 [CEG] [CEG]2 C | F2 G A>BA | %6
 GFE F2 A | ccd cAF |[M:5/8] [CFA]2 [B,EG] [A,F]2 |[M:1/8] [A,F] |[M:3/4] .[B,DF]2 [Fd]c- c/B/A | %11
 [EB]2 [Ec] [FA]2 [CF] | [DF][DB] [Fd]c AF |[M:5/8] [FA]2 [EG] [EG]2 |[M:1/8] C | %15
[M:3/4] F2 GA- A/B/A | GF E F2 A | cc dc AF | [FA]2 [EG] F3 |] %19
V:2
 z3 z2 C, | [F,A,C]2 [F,B,C] [F,CF]>[F,DF][F,C] | B,A,[C,G,C] [F,A,C]2 [F,C] | z3 .C3 | %4
 C,2 C, C,2 C, | [F,A,C]2 [F,B,C] [F,CF]>[F,DF][F,C] | .B,3 z3 | %7
 [F,A,F][F,A,F][F,B,F] [F,A,F][F,CF][F,A,] |[M:5/8] C,2 C, F,2 |[M:1/8] F, | %10
[M:3/4] z[K:treble] B[K:bass] [B,,B,][F,A,F]- [F,A,F]/[F,B,F]/[F,CF] | [C,C]2 [C,C] [F,C]2 [F,A,] | %12
 [B,,B,][B,,B,] [B,,B,][F,A,F] [F,CF][F,A,] |[M:5/8] [C,C]2 [C,C] [C,C]2 |[M:1/8] C, | %15
[M:3/4] [F,A,C]2 [F,B,C][F,CF]- [F,CF]/[F,DF]/[F,C] | B,A, [C,G,C] [F,A,C]2 [F,C] | %17
 [F,A,F][F,A,F] [F,B,F][F,A,F] [F,CF][F,A,] | [C,C]2 [C,B,] [F,A,]3 |] %19
V:3
 x6 | x6 | .[C,C]3 z3 | [F,A,F]2 [F,CF] [F,F]->[F,B,F]F, | x6 | x6 | %6
 [C,C]-[C,A,C][C,G,C] [F,A,C]2 [F,C] | x6 |[M:5/8] x5 |[M:1/8] x | %10
[M:3/4] B,,2[K:treble][K:bass] z2 z2 | x6 | x6 |[M:5/8] x5 |[M:1/8] x |[M:3/4] x6 | [C,C]2 z2 z2 | %17
 x6 | x6 |] %19

